; generated by Slic3r 1.1.6 on 2015-08-02 at 09:34:41

; perimeters extrusion width = 0.40mm
; infill extrusion width = 0.42mm
; solid infill extrusion width = 0.42mm
; top infill extrusion width = 0.28mm
; support material extrusion width = 0.40mm

G21 ; set units to millimeters
M107
M104 S220 ; set temperature
G28 X0 Y0  
G29
M109 S220 ; wait for temperature to be reached
G90 ; use absolute coordinates
G92 E0
M82 ; use absolute distances for extrusion
G1 F1800.000 E-3.00000
G92 E0
G1 Z0.350 F6600.000
G1 X62.721 Y24.069 F6600.000
G1 E3.00000 F1800.000
G1 X63.845 Y22.450 E3.18231 F900.000
G1 X65.515 Y21.403 E3.36463
G1 X67.232 Y21.093 E3.52597
G1 X152.721 Y21.093 E11.43292
G1 X154.652 Y21.489 E11.61524
G1 X156.271 Y22.613 E11.79755
G1 X157.318 Y24.283 E11.97987
G1 X157.628 Y26.000 E12.14120
G1 X157.628 Y74.000 E16.58077
G1 X157.232 Y75.931 E16.76308
G1 X156.108 Y77.550 E16.94540
G1 X154.438 Y78.597 E17.12771
G1 X152.721 Y78.907 E17.28905
G1 X67.232 Y78.907 E25.19601
G1 X65.301 Y78.511 E25.37832
G1 X63.682 Y77.387 E25.56064
G1 X62.635 Y75.717 E25.74295
G1 X62.325 Y74.000 E25.90429
G1 X62.325 Y26.000 E30.34385
G1 X62.709 Y24.128 E30.52062
G1 X63.356 Y24.205 F6600.000
G1 X64.469 Y22.743 E30.69058 F900.000
G1 X66.093 Y21.883 E30.86055
G1 X67.232 Y21.729 E30.96685
G1 X152.721 Y21.729 E38.87381
G1 X154.516 Y22.124 E39.04378
G1 X155.978 Y23.237 E39.21374
G1 X156.838 Y24.861 E39.38371
G1 X156.992 Y26.000 E39.49001
G1 X156.992 Y74.000 E43.92958
G1 X156.597 Y75.795 E44.09954
G1 X155.484 Y77.257 E44.26951
G1 X153.860 Y78.117 E44.43948
G1 X152.721 Y78.271 E44.54578
G1 X67.232 Y78.271 E52.45274
G1 X65.437 Y77.876 E52.62270
G1 X63.975 Y76.763 E52.79267
G1 X63.115 Y75.139 E52.96264
G1 X62.961 Y74.000 E53.06894
G1 X62.961 Y26.000 E57.50850
G1 X63.343 Y24.264 E57.67292
G1 X63.991 Y24.353 F6600.000
G1 X65.089 Y23.063 E57.82957 F900.000
G1 X67.232 Y22.364 E58.03807
G1 X152.721 Y22.364 E65.94503
G1 X154.368 Y22.759 E66.10168
G1 X155.658 Y23.857 E66.25832
G1 X156.357 Y26.000 E66.46683
G1 X156.357 Y74.000 E70.90639
G1 X155.962 Y75.647 E71.06304
G1 X154.864 Y76.937 E71.21969
G1 X152.721 Y77.636 E71.42819
G1 X67.232 Y77.636 E79.33515
G1 X65.585 Y77.241 E79.49180
G1 X64.295 Y76.143 E79.64845
G1 X63.596 Y74.000 E79.85695
G1 X63.596 Y26.000 E84.29651
G1 X63.977 Y24.411 E84.44761
G1 F1800.000 E81.44761
G92 E0
G1 X151.735 Y73.014 F6600.000
G1 E3.00000 F1800.000
G1 X68.218 Y73.014 E10.72463 F1350.000
G1 X68.218 Y26.986 E14.98188
G1 X151.735 Y26.986 E22.70651
G1 X151.735 Y72.954 E26.95820
G1 X152.371 Y73.650 F6600.000
G1 X67.582 Y73.650 E34.80041 F1215.000
G1 X67.582 Y26.350 E39.17523
G1 X152.371 Y26.350 E47.01744
G1 X152.371 Y73.590 E51.38671
G1 X152.025 Y73.450 F6600.000
G1 X151.255 Y27.426 F6600.000
G1 X151.295 Y27.466 E51.39195 F2700.000
G1 X151.295 Y28.366 E51.47512
G1 X150.355 Y27.426 E51.59799
G1 X149.456 Y27.426 E51.68117
G1 X151.295 Y29.265 E51.92167
G1 X151.295 Y30.164 E52.00484
G1 X148.557 Y27.426 E52.36298
G1 X147.657 Y27.426 E52.44615
G1 X151.295 Y31.064 E52.92192
G1 X151.295 Y31.963 E53.00510
G1 X146.758 Y27.426 E53.59849
G1 X145.859 Y27.426 E53.68167
G1 X151.295 Y32.862 E54.39270
G1 X151.295 Y33.762 E54.47588
G1 X144.959 Y27.426 E55.30454
G1 X144.060 Y27.426 E55.38772
G1 X151.295 Y34.661 E56.33401
G1 X151.295 Y35.560 E56.41719
G1 X143.161 Y27.426 E57.48112
G1 X142.261 Y27.426 E57.56430
G1 X151.295 Y36.460 E58.74585
G1 X151.295 Y37.359 E58.82903
G1 X141.362 Y27.426 E60.12822
G1 X140.463 Y27.426 E60.21140
G1 X151.295 Y38.258 E61.62823
G1 X151.295 Y39.158 E61.71141
G1 X139.563 Y27.426 E63.24586
G1 X138.664 Y27.426 E63.32904
G1 X151.295 Y40.057 E64.98113
G1 X151.295 Y40.956 E65.06431
G1 X137.765 Y27.426 E66.83403
G1 X136.865 Y27.426 E66.91721
G1 X151.295 Y41.856 E68.80457
G1 X151.295 Y42.755 E68.88775
G1 X135.966 Y27.426 E70.89273
G1 X135.067 Y27.426 E70.97591
G1 X151.295 Y43.654 E73.09853
G1 X151.295 Y44.553 E73.18171
G1 X134.168 Y27.426 E75.42197
G1 X133.268 Y27.426 E75.50514
G1 X151.295 Y45.453 E77.86303
G1 X151.295 Y46.352 E77.94621
G1 X132.369 Y27.426 E80.42173
G1 X131.470 Y27.426 E80.50491
G1 X151.295 Y47.251 E83.09806
G1 X151.295 Y48.151 E83.18124
G1 X130.570 Y27.426 E85.89202
G1 X129.671 Y27.426 E85.97520
G1 X151.295 Y49.050 E88.80362
G1 X151.295 Y49.949 E88.88680
G1 X128.772 Y27.426 E91.83284
G1 X127.872 Y27.426 E91.91602
G1 X151.295 Y50.849 E94.97971
G1 X151.295 Y51.748 E95.06288
G1 X126.973 Y27.426 E98.24420
G1 X126.074 Y27.426 E98.32738
G1 X151.295 Y52.647 E101.62633
G1 X151.295 Y53.547 E101.70950
G1 X125.174 Y27.426 E105.12608
G1 X124.275 Y27.426 E105.20926
G1 X151.295 Y54.446 E108.74348
G1 X151.295 Y55.345 E108.82665
G1 X123.376 Y27.426 E112.47850
G1 X122.476 Y27.426 E112.56168
G1 X151.295 Y56.245 E116.33116
G1 X151.295 Y57.144 E116.41434
G1 X121.577 Y27.426 E120.30145
G1 X120.678 Y27.426 E120.38463
G1 X151.295 Y58.043 E124.38937
G1 X151.295 Y58.943 E124.47255
G1 X119.778 Y27.426 E128.59492
G1 X118.879 Y27.426 E128.67810
G1 X151.295 Y59.842 E132.91811
G1 X151.295 Y60.741 E133.00129
G1 X117.980 Y27.426 E137.35893
G1 X117.080 Y27.426 E137.44211
G1 X151.295 Y61.641 E141.91738
G1 X151.295 Y62.540 E142.00056
G1 X116.181 Y27.426 E146.59347
G1 X115.282 Y27.426 E146.67665
G1 X151.295 Y63.439 E151.38719
G1 X151.295 Y64.339 E151.47037
G1 X114.383 Y27.426 E156.29854
G1 X113.483 Y27.426 E156.38172
G1 X151.295 Y65.238 E161.32752
G1 X151.295 Y66.137 E161.41070
G1 X112.584 Y27.426 E166.47414
G1 X111.685 Y27.426 E166.55732
G1 X151.295 Y67.036 E171.73839
G1 X151.295 Y67.936 E171.82157
G1 X110.785 Y27.426 E177.12027
G1 X109.886 Y27.426 E177.20345
G1 X151.295 Y68.835 E182.61978
G1 X151.295 Y69.734 E182.70296
G1 X108.987 Y27.426 E188.23693
G1 X108.087 Y27.426 E188.32011
G1 X151.295 Y70.634 E193.97171
G1 X151.295 Y71.533 E194.05489
G1 X107.188 Y27.426 E199.82412
G1 X106.289 Y27.426 E199.90730
G1 X151.295 Y72.432 E205.79417
G1 X150.536 Y72.574 E205.86550
G1 X105.389 Y27.426 E211.77083
G1 X104.490 Y27.426 E211.85401
G1 X149.637 Y72.574 E217.75933
G1 X148.738 Y72.574 E217.84251
G1 X103.591 Y27.426 E223.74784
G1 X102.691 Y27.426 E223.83102
G1 X147.839 Y72.574 E229.73635
G1 X146.939 Y72.574 E229.81953
G1 X101.792 Y27.426 E235.72486
G1 X100.893 Y27.426 E235.80804
G1 X146.040 Y72.574 E241.71337
G1 X145.141 Y72.574 E241.79655
G1 X99.993 Y27.426 E247.70188
G1 X99.094 Y27.426 E247.78505
G1 X144.241 Y72.574 E253.69038
G1 X143.342 Y72.574 E253.77356
G1 X98.195 Y27.426 E259.67889
G1 X97.295 Y27.426 E259.76207
G1 X142.443 Y72.574 E265.66740
G1 X141.543 Y72.574 E265.75058
G1 X96.396 Y27.426 E271.65591
G1 X95.497 Y27.426 E271.73909
G1 X140.644 Y72.574 E277.64442
G1 X139.745 Y72.574 E277.72760
G1 X94.598 Y27.426 E283.63293
G1 X93.698 Y27.426 E283.71610
G1 X138.845 Y72.574 E289.62143
G1 X137.946 Y72.574 E289.70461
G1 X92.799 Y27.426 E295.60994
G1 X91.900 Y27.426 E295.69312
G1 X137.047 Y72.574 E301.59845
G1 X136.147 Y72.574 E301.68163
G1 X91.000 Y27.426 E307.58696
G1 X90.101 Y27.426 E307.67014
G1 X135.248 Y72.574 E313.57547
G1 X134.349 Y72.574 E313.65865
G1 X89.202 Y27.426 E319.56397
G1 X88.302 Y27.426 E319.64715
G1 X133.449 Y72.574 E325.55248
G1 X132.550 Y72.574 E325.63566
G1 X87.403 Y27.426 E331.54099
G1 X86.504 Y27.426 E331.62417
G1 X131.651 Y72.574 E337.52950
G1 X130.751 Y72.574 E337.61268
G1 X85.604 Y27.426 E343.51801
G1 X84.705 Y27.426 E343.60119
G1 X129.852 Y72.574 E349.50652
G1 X128.953 Y72.574 E349.58969
G1 X83.806 Y27.426 E355.49502
G1 X82.906 Y27.426 E355.57820
G1 X128.054 Y72.574 E361.48353
G1 X127.154 Y72.574 E361.56671
G1 X82.007 Y27.426 E367.47204
G1 X81.108 Y27.426 E367.55522
G1 X126.255 Y72.574 E373.46055
G1 X125.356 Y72.574 E373.54373
G1 X80.208 Y27.426 E379.44906
G1 X79.309 Y27.426 E379.53224
G1 X124.456 Y72.574 E385.43757
G1 X123.557 Y72.574 E385.52074
G1 X78.410 Y27.426 E391.42607
G1 X77.510 Y27.426 E391.50925
G1 X122.658 Y72.574 E397.41458
G1 X121.758 Y72.574 E397.49776
G1 X76.611 Y27.426 E403.40309
G1 X75.712 Y27.426 E403.48627
G1 X120.859 Y72.574 E409.39160
G1 X119.960 Y72.574 E409.47478
G1 X74.813 Y27.426 E415.38011
G1 X73.913 Y27.426 E415.46329
G1 X119.060 Y72.574 E421.36861
G1 X118.161 Y72.574 E421.45179
G1 X73.014 Y27.426 E427.35712
G1 X72.115 Y27.426 E427.44030
G1 X117.262 Y72.574 E433.34563
G1 X116.362 Y72.574 E433.42881
G1 X71.215 Y27.426 E439.33414
G1 X70.316 Y27.426 E439.41732
G1 X115.463 Y72.574 E445.32265
G1 X114.564 Y72.574 E445.40583
G1 X69.417 Y27.426 E451.31116
G1 X68.658 Y27.568 E451.38248
G1 X113.664 Y72.574 E457.26935
G1 X112.765 Y72.574 E457.35253
G1 X68.658 Y28.467 E463.12176
G1 X68.658 Y29.366 E463.20494
G1 X111.866 Y72.574 E468.85653
G1 X110.966 Y72.574 E468.93971
G1 X68.658 Y30.266 E474.47368
G1 X68.658 Y31.165 E474.55686
G1 X110.067 Y72.574 E479.97319
G1 X109.168 Y72.574 E480.05637
G1 X68.658 Y32.064 E485.35507
G1 X68.658 Y32.964 E485.43825
G1 X108.269 Y72.574 E490.61932
G1 X107.369 Y72.574 E490.70250
G1 X68.658 Y33.863 E495.76593
G1 X68.658 Y34.762 E495.84911
G1 X106.470 Y72.574 E500.79491
G1 X105.571 Y72.574 E500.87809
G1 X68.658 Y35.661 E505.70626
G1 X68.658 Y36.561 E505.78944
G1 X104.671 Y72.574 E510.49998
G1 X103.772 Y72.574 E510.58316
G1 X68.658 Y37.460 E515.17606
G1 X68.658 Y38.359 E515.25924
G1 X102.873 Y72.574 E519.73451
G1 X101.973 Y72.574 E519.81769
G1 X68.658 Y39.259 E524.17533
G1 X68.658 Y40.158 E524.25851
G1 X101.074 Y72.574 E528.49852
G1 X100.175 Y72.574 E528.58169
G1 X68.658 Y41.057 E532.70407
G1 X68.658 Y41.957 E532.78725
G1 X99.275 Y72.574 E536.79199
G1 X98.376 Y72.574 E536.87517
G1 X68.658 Y42.856 E540.76228
G1 X68.658 Y43.755 E540.84546
G1 X97.477 Y72.574 E544.61493
G1 X96.577 Y72.574 E544.69811
G1 X68.658 Y44.655 E548.34995
G1 X68.658 Y45.554 E548.43313
G1 X95.678 Y72.574 E551.96734
G1 X94.779 Y72.574 E552.05052
G1 X68.658 Y46.453 E555.46710
G1 X68.658 Y47.353 E555.55028
G1 X93.879 Y72.574 E558.84923
G1 X92.980 Y72.574 E558.93240
G1 X68.658 Y48.252 E562.11372
G1 X68.658 Y49.151 E562.19690
G1 X92.081 Y72.574 E565.26058
G1 X91.181 Y72.574 E565.34376
G1 X68.658 Y50.051 E568.28980
G1 X68.658 Y50.950 E568.37298
G1 X90.282 Y72.574 E571.20140
G1 X89.383 Y72.574 E571.28458
G1 X68.658 Y51.849 E573.99536
G1 X68.658 Y52.749 E574.07854
G1 X88.483 Y72.574 E576.67169
G1 X87.584 Y72.574 E576.75487
G1 X68.658 Y53.648 E579.23038
G1 X68.658 Y54.547 E579.31356
G1 X86.685 Y72.574 E581.67145
G1 X85.786 Y72.574 E581.75463
G1 X68.658 Y55.447 E583.99488
G1 X68.658 Y56.346 E584.07806
G1 X84.886 Y72.574 E586.20068
G1 X83.987 Y72.574 E586.28386
G1 X68.658 Y57.245 E588.28884
G1 X68.658 Y58.144 E588.37202
G1 X83.088 Y72.574 E590.25938
G1 X82.188 Y72.574 E590.34255
G1 X68.658 Y59.044 E592.11228
G1 X68.658 Y59.943 E592.19545
G1 X81.289 Y72.574 E593.84754
G1 X80.390 Y72.574 E593.93072
G1 X68.658 Y60.842 E595.46518
G1 X68.658 Y61.742 E595.54836
G1 X79.490 Y72.574 E596.96518
G1 X78.591 Y72.574 E597.04836
G1 X68.658 Y62.641 E598.34755
G1 X68.658 Y63.540 E598.43073
G1 X77.692 Y72.574 E599.61229
G1 X76.792 Y72.574 E599.69547
G1 X68.658 Y64.440 E600.75939
G1 X68.658 Y65.339 E600.84257
G1 X75.893 Y72.574 E601.78886
G1 X74.994 Y72.574 E601.87204
G1 X68.658 Y66.238 E602.70070
G1 X68.658 Y67.138 E602.78388
G1 X74.094 Y72.574 E603.49491
G1 X73.195 Y72.574 E603.57809
G1 X68.658 Y68.037 E604.17148
G1 X68.658 Y68.936 E604.25466
G1 X72.296 Y72.574 E604.73043
G1 X71.396 Y72.574 E604.81360
G1 X68.658 Y69.836 E605.17173
G1 X68.658 Y70.735 E605.25491
G1 X70.497 Y72.574 E605.49541
G1 X69.598 Y72.574 E605.57859
G1 X68.658 Y71.634 E605.70145
G1 X68.658 Y72.534 E605.78463
G1 X68.698 Y72.574 E605.78987
M106 S255
G1 F1800.000 E602.78987
G92 E0
G1 Z0.660 F6600.000
G1 X152.033 Y73.400 F6600.000
G1 E3.00000 F1800.000
G1 X67.832 Y73.400 E7.33521 F1800.000
G1 X67.832 Y26.600 E9.74479
G1 X152.033 Y26.600 E14.08000
G1 X152.033 Y73.340 E16.48648
G1 X152.433 Y73.800 F6600.000
G1 X67.432 Y73.800 E20.86288 F1620.000
G1 X67.432 Y26.200 E23.31365
G1 X152.433 Y26.200 E27.69004
G1 X152.433 Y73.740 E30.13772
G1 X152.086 Y73.600 F6600.000
G1 X151.759 Y73.086 F6600.000
G1 X151.719 Y73.126 E30.14075 F3600.000
G1 X151.129 Y73.126 E30.17232
G1 X151.759 Y72.496 E30.22001
G1 X151.759 Y71.906 E30.25158
G1 X150.539 Y73.126 E30.34392
G1 X149.949 Y73.126 E30.37550
G1 X151.759 Y71.316 E30.51249
G1 X151.759 Y70.726 E30.54407
G1 X149.359 Y73.126 E30.72572
G1 X148.769 Y73.126 E30.75730
G1 X151.759 Y70.136 E30.98360
G1 X151.759 Y69.546 E31.01518
G1 X148.178 Y73.126 E31.28614
G1 X147.588 Y73.126 E31.31772
G1 X151.759 Y68.956 E31.63334
G1 X151.759 Y68.365 E31.66491
G1 X146.998 Y73.126 E32.02519
G1 X146.408 Y73.126 E32.05676
G1 X151.759 Y67.775 E32.46169
G1 X151.759 Y67.185 E32.49327
G1 X145.818 Y73.126 E32.94286
G1 X145.228 Y73.126 E32.97443
G1 X151.759 Y66.595 E33.46868
G1 X151.759 Y66.005 E33.50025
G1 X144.638 Y73.126 E34.03915
G1 X144.048 Y73.126 E34.07073
G1 X151.759 Y65.415 E34.65428
G1 X151.759 Y64.825 E34.68586
G1 X143.457 Y73.126 E35.31407
G1 X142.867 Y73.126 E35.34564
G1 X151.759 Y64.235 E36.01851
G1 X151.759 Y63.645 E36.05009
G1 X142.277 Y73.126 E36.76761
G1 X141.687 Y73.126 E36.79918
G1 X151.759 Y63.054 E37.56136
G1 X151.759 Y62.464 E37.59294
G1 X141.097 Y73.126 E38.39977
G1 X140.507 Y73.126 E38.43135
G1 X151.759 Y61.874 E39.28284
G1 X151.759 Y61.284 E39.31441
G1 X139.917 Y73.126 E40.21056
G1 X139.327 Y73.126 E40.24213
G1 X151.759 Y60.694 E41.18294
G1 X151.759 Y60.104 E41.21451
G1 X138.737 Y73.126 E42.19997
G1 X138.146 Y73.126 E42.23155
G1 X151.759 Y59.514 E43.26166
G1 X151.759 Y58.924 E43.29324
G1 X137.556 Y73.126 E44.36800
G1 X136.966 Y73.126 E44.39958
G1 X151.759 Y58.333 E45.51901
G1 X151.759 Y57.743 E45.55058
G1 X136.376 Y73.126 E46.71466
G1 X135.786 Y73.126 E46.74624
G1 X151.759 Y57.153 E47.95498
G1 X151.759 Y56.563 E47.98655
G1 X135.196 Y73.126 E49.23994
G1 X134.606 Y73.126 E49.27152
G1 X151.759 Y55.973 E50.56957
G1 X151.759 Y55.383 E50.60115
G1 X134.016 Y73.126 E51.94385
G1 X133.425 Y73.126 E51.97543
G1 X151.759 Y54.793 E53.36279
G1 X151.759 Y54.203 E53.39436
G1 X132.835 Y73.126 E54.82638
G1 X132.245 Y73.126 E54.85796
G1 X151.759 Y53.612 E56.33463
G1 X151.759 Y53.022 E56.36620
G1 X131.655 Y73.126 E57.88753
G1 X131.065 Y73.126 E57.91911
G1 X151.759 Y52.432 E59.48509
G1 X151.759 Y51.842 E59.51667
G1 X130.475 Y73.126 E61.12731
G1 X129.885 Y73.126 E61.15889
G1 X151.759 Y51.252 E62.81418
G1 X151.759 Y50.662 E62.84576
G1 X129.295 Y73.126 E64.54571
G1 X128.704 Y73.126 E64.57729
G1 X151.759 Y50.072 E66.32189
G1 X151.759 Y49.482 E66.35347
G1 X128.114 Y73.126 E68.14273
G1 X127.524 Y73.126 E68.17431
G1 X151.759 Y48.892 E70.00823
G1 X151.759 Y48.301 E70.03981
G1 X126.934 Y73.126 E71.91838
G1 X126.344 Y73.126 E71.94996
G1 X151.759 Y47.711 E73.87319
G1 X151.759 Y47.121 E73.90476
G1 X125.754 Y73.126 E75.87265
G1 X125.164 Y73.126 E75.90423
G1 X151.759 Y46.531 E77.91677
G1 X151.759 Y45.941 E77.94835
G1 X124.574 Y73.126 E80.00555
G1 X123.983 Y73.126 E80.03712
G1 X151.759 Y45.351 E82.13898
G1 X151.759 Y44.761 E82.17055
G1 X123.393 Y73.126 E84.31706
G1 X122.803 Y73.126 E84.34864
G1 X151.759 Y44.171 E86.53981
G1 X151.759 Y43.580 E86.57138
G1 X122.213 Y73.126 E88.80721
G1 X121.623 Y73.126 E88.83878
G1 X151.759 Y42.990 E91.11926
G1 X151.759 Y42.400 E91.15084
G1 X121.033 Y73.126 E93.47597
G1 X120.443 Y73.126 E93.50755
G1 X151.759 Y41.810 E95.87734
G1 X151.759 Y41.220 E95.90892
G1 X119.853 Y73.126 E98.32336
G1 X119.263 Y73.126 E98.35494
G1 X151.759 Y40.630 E100.81404
G1 X151.759 Y40.040 E100.84562
G1 X118.672 Y73.126 E103.34938
G1 X118.082 Y73.126 E103.38095
G1 X151.759 Y39.450 E105.92937
G1 X151.759 Y38.859 E105.96094
G1 X117.492 Y73.126 E108.55401
G1 X116.902 Y73.126 E108.58559
G1 X151.759 Y38.269 E111.22331
G1 X151.759 Y37.679 E111.25489
G1 X116.312 Y73.126 E113.93727
G1 X115.722 Y73.126 E113.96885
G1 X151.759 Y37.089 E116.69589
G1 X151.759 Y36.499 E116.72746
G1 X115.132 Y73.126 E119.49916
G1 X114.542 Y73.126 E119.53073
G1 X151.759 Y35.909 E122.34708
G1 X151.759 Y35.319 E122.37866
G1 X113.951 Y73.126 E125.23966
G1 X113.361 Y73.126 E125.27124
G1 X151.759 Y34.729 E128.17690
G1 X151.759 Y34.139 E128.20848
G1 X112.771 Y73.126 E131.15879
G1 X112.181 Y73.126 E131.19037
G1 X151.759 Y33.548 E134.18534
G1 X151.759 Y32.958 E134.21692
G1 X111.591 Y73.126 E137.25655
